assets/1. F-P/Honey pot/Color/Honey.Pot-color.svg

<svg width="100%" height="100%" viewBox="0 0 32 32" fill="none" xmlns="http://www.w3.org/2000/svg">
<circle cx="19.426" cy="3.73438" r="1.73438" fill="url(#paint0_radial_18_30505)"/>
<path d="M18.3 5.04034L17.15 9.33034L18.6 9.72034L19.75 5.43034L18.3 5.04034Z" fill="url(#paint1_linear_18_30505)"/>
<path d="M24.91 6.82037H7.09C6.49 6.82037 6 7.31037 6 7.91037C6 8.51037 6.49 9.00037 7.09 9.00037H24.91C25.51 9.00037 26 8.51037 26 7.91037C26 7.31037 25.51 6.82037 24.91 6.82037Z" fill="url(#paint2_linear_18_30505)"/>
<path d="M24.91 6.82037H7.09C6.49 6.82037 6 7.31037 6 7.91037C6 8.51037 6.49 9.00037 7.09 9.00037H24.91C25.51 9.00037 26 8.51037 26 7.91037C26 7.31037 25.51 6.82037 24.91 6.82037Z" fill="url(#paint3_radial_18_30505)"/>
<path d="M24.91 6.82037H7.09C6.49 6.82037 6 7.31037 6 7.91037C6 8.51037 6.49 9.00037 7.09 9.00037H24.91C25.51 9.00037 26 8.51037 26 7.91037C26 7.31037 25.51 6.82037 24.91 6.82037Z" fill="url(#paint4_radial_18_30505)"/>
<path d="M23 9.00037H9C6.24 9.00037 4 11.2404 4 14.0004C4 14.4604 4.06 14.9004 4.18 15.3304L7.63 28.6004C7.85 29.4204 8.6 30.0004 9.45 30.0004H22.55C23.4 30.0004 24.15 29.4204 24.36 28.6004L27.81 15.3704C27.93 14.9304 28 14.4704 28 14.0004C28 11.2404 25.76 9.00037 23 9.00037Z" fill="url(#paint5_linear_18_30505)"/>
<path d="M23 9.00037H9C6.24 9.00037 4 11.2404 4 14.0004C4 14.4604 4.06 14.9004 4.18 15.3304L7.63 28.6004C7.85 29.4204 8.6 30.0004 9.45 30.0004H22.55C23.4 30.0004 24.15 29.4204 24.36 28.6004L27.81 15.3704C27.93 14.9304 28 14.4704 28 14.0004C28 11.2404 25.76 9.00037 23 9.00037Z" fill="url(#paint6_linear_18_30505)"/>
<path d="M23 9.00037H9C6.24 9.00037 4 11.2404 4 14.0004C4 14.4604 4.06 14.9004 4.18 15.3304L7.63 28.6004C7.85 29.4204 8.6 30.0004 9.45 30.0004H22.55C23.4 30.0004 24.15 29.4204 24.36 28.6004L27.81 15.3704C27.93 14.9304 28 14.4704 28 14.0004C28 11.2404 25.76 9.00037 23 9.00037Z" fill="url(#paint7_radial_18_30505)"/>
<path d="M23 9.00037H9C6.24 9.00037 4 11.2404 4 14.0004C4 14.4604 4.06 14.9004 4.18 15.3304L7.63 28.6004C7.85 29.4204 8.6 30.0004 9.45 30.0004H22.55C23.4 30.0004 24.15 29.4204 24.36 28.6004L27.81 15.3704C27.93 14.9304 28 14.4704 28 14.0004C28 11.2404 25.76 9.00037 23 9.00037Z" fill="url(#paint8_radial_18_30505)"/>
<path d="M23 9.00037H9C6.24 9.00037 4 11.2404 4 14.0004C4 14.4604 4.06 14.9004 4.18 15.3304L7.63 28.6004C7.85 29.4204 8.6 30.0004 9.45 30.0004H22.55C23.4 30.0004 24.15 29.4204 24.36 28.6004L27.81 15.3704C27.93 14.9304 28 14.4704 28 14.0004C28 11.2404 25.76 9.00037 23 9.00037Z" fill="url(#paint9_linear_18_30505)"/>
<path d="M6.56 24.4504H25.44L27.39 17.0004H4.61L6.56 24.4504Z" fill="url(#paint10_linear_18_30505)"/>
<g filter="url(#filter0_f_18_30505)">
<path d="M21.4338 9.56771C21.4338 9.56771 21.4338 9.55906 21.4432 9.55906L22.6875 7.40625H18.4494H17.4203H9.09375L11.2812 11.0938C11.749 11.9238 12.677 12.4375 13.7622 12.4375C15.8854 12.4375 16.296 10.6338 17.1875 9.09219C17.384 8.755 18.1968 8.755 18.3839 9.09219L18.6459 9.54177C18.9078 10.0086 19.4411 10.3285 20.0492 10.3285C20.648 10.3285 21.1625 10.0259 21.4338 9.56771Z" fill="#904012"/>
</g>
<path d="M21.93 9.32037C22.2891 8.75 22.7734 7.53906 23.0469 6.82037H18.74H17.64H8.95312C8.95312 6.82037 9.40624 9.216 10.1094 10.4531C10.8125 11.6903 12.0356 12.75 13.5625 12.75C14.6925 12.75 15.7037 12.2235 16.3125 11.2578C16.9213 10.2921 16.9375 9.78906 17.4922 9.1875C18.0469 8.58594 18.5628 8.61272 18.9297 9.32037C19.2097 9.86037 19.8 10.2004 20.45 10.2004C21.09 10.2004 21.5709 9.89075 21.93 9.32037Z" fill="url(#paint11_linear_18_30505)"/>
<path d="M21.93 9.32037C22.2891 8.75 22.7734 7.53906 23.0469 6.82037H18.74H17.64H8.95312C8.95312 6.82037 9.40624 9.216 10.1094 10.4531C10.8125 11.6903 12.0356 12.75 13.5625 12.75C14.6925 12.75 15.7037 12.2235 16.3125 11.2578C16.9213 10.2921 16.9375 9.78906 17.4922 9.1875C18.0469 8.58594 18.5628 8.61272 18.9297 9.32037C19.2097 9.86037 19.8 10.2004 20.45 10.2004C21.09 10.2004 21.5709 9.89075 21.93 9.32037Z" fill="url(#paint12_linear_18_30505)"/>
<path d="M21.93 9.32037C22.2891 8.75 22.7734 7.53906 23.0469 6.82037H18.74H17.64H8.95312C8.95312 6.82037 9.40624 9.216 10.1094 10.4531C10.8125 11.6903 12.0356 12.75 13.5625 12.75C14.6925 12.75 15.7037 12.2235 16.3125 11.2578C16.9213 10.2921 16.9375 9.78906 17.4922 9.1875C18.0469 8.58594 18.5628 8.61272 18.9297 9.32037C19.2097 9.86037 19.8 10.2004 20.45 10.2004C21.09 10.2004 21.5709 9.89075 21.93 9.32037Z" fill="url(#paint13_radial_18_30505)"/>
<g filter="url(#filter1_f_18_30505)">
<path d="M20.6562 14.0703C21.0859 14.0703 21.5703 13.6553 21.5703 13.0312C21.5703 12.4072 20.9678 11.7734 20.3438 11.7734C19.7197 11.7734 19.2969 12.3057 19.2969 12.9297C19.2969 13.5538 19.75 14.0703 20.6562 14.0703Z" fill="#D1854F"/>
</g>
<path d="M20.75 13.9609C21.1797 13.9609 21.6641 13.546 21.6641 12.9219C21.6641 12.2978 21.0616 11.6641 20.4375 11.6641C19.8134 11.6641 19.3906 12.1963 19.3906 12.8204C19.3906 13.4445 19.8438 13.9609 20.75 13.9609Z" fill="url(#paint14_radial_18_30505)"/>
<g filter="url(#filter2_f_18_30505)">
<path d="M21.7681 9.16976C21.9143 8.91952 22.4303 7.61045 22.7031 7.10938H9.35938C9.35938 7.10938 9.96875 9.39854 10.625 10.5781C11.2812 11.7577 12.5725 12.2745 13.7325 12.2745C14.8625 12.2745 15.6878 11.6847 16.1978 10.8234C16.4245 10.4405 17.33 8.9524 17.6431 8.35266C17.9243 7.9104 18.8084 7.98755 19.0084 8.35266L19.4087 9.14167C19.6887 9.64722 19.9775 9.88391 20.6275 9.88391C21.2675 9.88391 21.4781 9.66594 21.7681 9.16976Z" fill="url(#paint15_linear_18_30505)"/>
</g>
<g filter="url(#filter3_f_18_30505)">
<path d="M18.1474 7.99408C18.2131 7.97309 18.2494 7.90276 18.2285 7.83699C18.2075 7.77123 18.1371 7.73493 18.0714 7.75592L18.1474 7.99408ZM16.4688 9.875L16.5829 9.92605L16.4688 9.875ZM14.6598 11.9875C14.5925 12.0028 14.5503 12.0698 14.5656 12.1371C14.5809 12.2044 14.6479 12.2466 14.7152 12.2313L14.6598 11.9875ZM18.0714 7.75592C17.855 7.82498 17.5591 8.049 17.2569 8.39084C16.9505 8.73752 16.6253 9.21899 16.3546 9.82395L16.5829 9.92605C16.8435 9.34351 17.155 8.88358 17.4442 8.55643C17.7377 8.22444 17.9966 8.0422 18.1474 7.99408L18.0714 7.75592ZM16.3546 9.82395C16.2173 10.1311 15.9476 10.6434 15.6287 11.0965C15.4692 11.3231 15.2996 11.5315 15.1305 11.6916C14.9593 11.8538 14.7993 11.9558 14.6598 11.9875L14.7152 12.2313C14.9194 12.1848 15.119 12.0468 15.3024 11.8732C15.4879 11.6975 15.6682 11.4746 15.8331 11.2404C16.1628 10.772 16.4401 10.2452 16.5829 9.92605L16.3546 9.82395Z" fill="url(#paint16_radial_18_30505)"/>
</g>
<defs>
<filter id="filter0_f_18_30505" x="8.09375" y="6.40625" width="15.5938" height="7.03125" filterUnits="userSpaceOnUse" color-interpolation-filters="sRGB">
<feFlood flood-opacity="0" result="BackgroundImageFix"/>
<feBlend mode="normal" in="SourceGraphic" in2="BackgroundImageFix" result="shape"/>
<feGaussianBlur stdDeviation="0.5" result="effect1_foregroundBlur_18_30505"/>
</filter>
<filter id="filter1_f_18_30505" x="19.0469" y="11.5234" width="2.77344" height="2.79688" filterUnits="userSpaceOnUse" color-interpolation-filters="sRGB">
<feFlood flood-opacity="0" result="BackgroundImageFix"/>
<feBlend mode="normal" in="SourceGraphic" in2="BackgroundImageFix" result="shape"/>
<feGaussianBlur stdDeviation="0.125" result="effect1_foregroundBlur_18_30505"/>
</filter>
<filter id="filter2_f_18_30505" x="8.85938" y="6.60938" width="14.3438" height="6.16516" filterUnits="userSpaceOnUse" color-interpolation-filters="sRGB">
<feFlood flood-opacity="0" result="BackgroundImageFix"/>
<feBlend mode="normal" in="SourceGraphic" in2="BackgroundImageFix" result="shape"/>
<feGaussianBlur stdDeviation="0.25" result="effect1_foregroundBlur_18_30505"/>
</filter>
<filter id="filter3_f_18_30505" x="14.3125" y="7.49994" width="4.17194" height="4.98444" filterUnits="userSpaceOnUse" color-interpolation-filters="sRGB">
<feFlood flood-opacity="0" result="BackgroundImageFix"/>
<feBlend mode="normal" in="SourceGraphic" in2="BackgroundImageFix" result="shape"/>
<feGaussianBlur stdDeviation="0.125" result="effect1_foregroundBlur_18_30505"/>
</filter>
<radialGradient id="paint0_radial_18_30505" cx="0" cy="0" r="1" gradientUnits="userSpaceOnUse" gradientTransform="translate(20.1563 3.0625) rotate(132.709) scale(2.76434)">
<stop stop-color="#A87D68"/>
<stop offset="0.755911" stop-color="#77391A"/>
</radialGradient>
<linearGradient id="paint1_linear_18_30505" x1="18.0313" y1="6.21875" x2="19.5" y2="6.625" gradientUnits="userSpaceOnUse">
<stop stop-color="#76442D"/>
<stop offset="0.623683" stop-color="#895E48"/>
<stop offset="1" stop-color="#82573C"/>
</linearGradient>
<linearGradient id="paint2_linear_18_30505" x1="6" y1="8.375" x2="26" y2="8.375" gradientUnits="userSpaceOnUse">
<stop stop-color="#9E6D47"/>
<stop offset="0.603125" stop-color="#9E491E"/>
<stop offset="0.809375" stop-color="#C6844B"/>
<stop offset="1" stop-color="#C48950"/>
</linearGradient>
<radialGradient id="paint3_radial_18_30505" cx="0" cy="0" r="1" gradientUnits="userSpaceOnUse" gradientTransform="translate(22.9063 7.4375) rotate(90) scale(0.937498 8.6009)">
<stop stop-color="#D29D6C"/>
<stop offset="0.766666" stop-color="#D49F6D" stop-opacity="0"/>
</radialGradient>
<radialGradient id="paint4_radial_18_30505" cx="0" cy="0" r="1" gradientUnits="userSpaceOnUse" gradientTransform="translate(7.90625 8.3125) rotate(90) scale(0.90625 8.31422)">
<stop stop-color="#AE7352"/>
<stop offset="0.564516" stop-color="#B77855" stop-opacity="0"/>
</radialGradient>
<linearGradient id="paint5_linear_18_30505" x1="7.75" y1="30.0004" x2="24.75" y2="30.0004" gradientUnits="userSpaceOnUse">
<stop stop-color="#AA7055"/>
<stop offset="0.286765" stop-color="#C57357"/>
<stop offset="0.628676" stop-color="#D6855A"/>
<stop offset="1" stop-color="#D28D59"/>
</linearGradient>
<linearGradient id="paint6_linear_18_30505" x1="21" y1="30.0004" x2="21" y2="27.8125" gradientUnits="userSpaceOnUse">
<stop stop-color="#C66D81"/>
<stop offset="0.657201" stop-color="#C66B68" stop-opacity="0"/>
</linearGradient>
<radialGradient id="paint7_radial_18_30505" cx="0" cy="0" r="1" gradientUnits="userSpaceOnUse" gradientTransform="translate(5.0625 7.625) rotate(135.864) scale(8.79564 10.0522)">
<stop stop-color="#95653D"/>
<stop offset="1" stop-color="#96673D" stop-opacity="0"/>
</radialGradient>
<radialGradient id="paint8_radial_18_30505" cx="0" cy="0" r="1" gradientUnits="userSpaceOnUse" gradientTransform="translate(23.625 11.5625) rotate(90) scale(6.75 16.9375)">
<stop stop-color="#E8A86C"/>
<stop offset="0.574074" stop-color="#E8A86C" stop-opacity="0"/>
</radialGradient>
<linearGradient id="paint9_linear_18_30505" x1="16" y1="8.78125" x2="16" y2="9.92187" gradientUnits="userSpaceOnUse">
<stop offset="0.0958904" stop-color="#99490C"/>
<stop offset="0.847826" stop-color="#9A4A0D" stop-opacity="0"/>
</linearGradient>
<linearGradient id="paint10_linear_18_30505" x1="4.61" y1="24.4504" x2="27.39" y2="24.4504" gradientUnits="userSpaceOnUse">
<stop stop-color="#7C5750"/>
<stop offset="0.157046" stop-color="#804E49"/>
<stop offset="0.450615" stop-color="#925154"/>
<stop offset="0.790825" stop-color="#A06150"/>
<stop offset="1" stop-color="#9B6654"/>
</linearGradient>
<linearGradient id="paint11_linear_18_30505" x1="9.1875" y1="8.1875" x2="22.75" y2="8.1875" gradientUnits="userSpaceOnUse">
<stop stop-color="#AB8237"/>
<stop offset="0.336406" stop-color="#D89640"/>
<stop offset="0.534562" stop-color="#F1B321"/>
<stop offset="0.741936" stop-color="#CD8607"/>
<stop offset="0.889401" stop-color="#F0AF1F"/>
<stop offset="1" stop-color="#EEBB35"/>
</linearGradient>
<linearGradient id="paint12_linear_18_30505" x1="16.005" y1="6.82037" x2="16" y2="7.78125" gradientUnits="userSpaceOnUse">
<stop stop-color="#AF8435"/>
<stop offset="1" stop-color="#B48A31" stop-opacity="0"/>
</linearGradient>
<radialGradient id="paint13_radial_18_30505" cx="0" cy="0" r="1" gradientUnits="userSpaceOnUse" gradientTransform="translate(22.5625 7.0625) rotate(90) scale(1.0625 12.2813)">
<stop stop-color="#FECE55"/>
<stop offset="1" stop-color="#FCCE59" stop-opacity="0"/>
</radialGradient>
<radialGradient id="paint14_radial_18_30505" cx="0" cy="0" r="1" gradientUnits="userSpaceOnUse" gradientTransform="translate(21 12.3125) rotate(124.484) scale(1.98703)">
<stop offset="0.0722829" stop-color="#FFCD5E"/>
<stop offset="0.771267" stop-color="#F1AB38"/>
</radialGradient>
<linearGradient id="paint15_linear_18_30505" x1="9.18997" y1="8.10917" x2="22.7525" y2="8.10917" gradientUnits="userSpaceOnUse">
<stop stop-color="#B68D22"/>
<stop offset="0.829493" stop-color="#FFD15D"/>
</linearGradient>
<radialGradient id="paint16_radial_18_30505" cx="0" cy="0" r="1" gradientUnits="userSpaceOnUse" gradientTransform="translate(16.543 10.0703) rotate(120.542) scale(2.82109 1.708)">
<stop stop-color="#F7C357"/>
<stop offset="1" stop-color="#F9C557" stop-opacity="0"/>
</radialGradient>
</defs>
</svg>

<svg width="100%" height="100%" viewBox="0 0 32 32" xmlns="http://www.w3.org/2000/svg"><circle cx="19.426" cy="3.734" r="1.734" fill="url(#a)"/><path fill="url(#b)" d="m18.3 5.04-1.15 4.29 1.45.39 1.15-4.29z"/><path fill="url(#c)" d="M24.91 6.82H7.09c-.6 0-1.09.49-1.09 1.09S6.49 9 7.09 9h17.82c.6 0 1.09-.49 1.09-1.09s-.49-1.09-1.09-1.09"/><path fill="url(#d)" d="M24.91 6.82H7.09c-.6 0-1.09.49-1.09 1.09S6.49 9 7.09 9h17.82c.6 0 1.09-.49 1.09-1.09s-.49-1.09-1.09-1.09"/><path fill="url(#e)" d="M24.91 6.82H7.09c-.6 0-1.09.49-1.09 1.09S6.49 9 7.09 9h17.82c.6 0 1.09-.49 1.09-1.09s-.49-1.09-1.09-1.09"/><path fill="url(#f)" d="M23 9H9a5.002 5.002 0 0 0-4.82 6.33L7.63 28.6c.22.82.97 1.4 1.82 1.4h13.1c.85 0 1.6-.58 1.81-1.4l3.45-13.23A5.002 5.002 0 0 0 23 9"/><path fill="url(#g)" d="M23 9H9a5.002 5.002 0 0 0-4.82 6.33L7.63 28.6c.22.82.97 1.4 1.82 1.4h13.1c.85 0 1.6-.58 1.81-1.4l3.45-13.23A5.002 5.002 0 0 0 23 9"/><path fill="url(#h)" d="M23 9H9a5.002 5.002 0 0 0-4.82 6.33L7.63 28.6c.22.82.97 1.4 1.82 1.4h13.1c.85 0 1.6-.58 1.81-1.4l3.45-13.23A5.002 5.002 0 0 0 23 9"/><path fill="url(#i)" d="M23 9H9a5.002 5.002 0 0 0-4.82 6.33L7.63 28.6c.22.82.97 1.4 1.82 1.4h13.1c.85 0 1.6-.58 1.81-1.4l3.45-13.23A5.002 5.002 0 0 0 23 9"/><path fill="url(#j)" d="M23 9H9a5.002 5.002 0 0 0-4.82 6.33L7.63 28.6c.22.82.97 1.4 1.82 1.4h13.1c.85 0 1.6-.58 1.81-1.4l3.45-13.23A5.002 5.002 0 0 0 23 9"/><path fill="url(#k)" d="M6.56 24.45h18.88L27.39 17H4.61z"/><g filter="url(#l)"><path fill="#904012" d="M21.434 9.568s0-.009.01-.009l1.244-2.153H9.093l2.187 3.688c.468.83 1.396 1.344 2.481 1.344 2.123 0 2.534-1.804 3.425-3.346.197-.337 1.01-.337 1.197 0l.262.45c.262.467.795.787 1.403.787.599 0 1.114-.303 1.385-.761"/></g><path fill="url(#m)" d="M21.93 9.32c.36-.57.843-1.78 1.117-2.5H8.953s.453 2.396 1.156 3.633c.704 1.237 1.927 2.297 3.454 2.297 1.13 0 2.14-.527 2.75-1.492.608-.966.625-1.469 1.18-2.07.554-.602 1.07-.575 1.437.132.28.54.87.88 1.52.88.64 0 1.12-.31 1.48-.88"/><path fill="url(#n)" d="M21.93 9.32c.36-.57.843-1.78 1.117-2.5H8.953s.453 2.396 1.156 3.633c.704 1.237 1.927 2.297 3.454 2.297 1.13 0 2.14-.527 2.75-1.492.608-.966.625-1.469 1.18-2.07.554-.602 1.07-.575 1.437.132.28.54.87.88 1.52.88.64 0 1.12-.31 1.48-.88"/><path fill="url(#o)" d="M21.93 9.32c.36-.57.843-1.78 1.117-2.5H8.953s.453 2.396 1.156 3.633c.704 1.237 1.927 2.297 3.454 2.297 1.13 0 2.14-.527 2.75-1.492.608-.966.625-1.469 1.18-2.07.554-.602 1.07-.575 1.437.132.28.54.87.88 1.52.88.64 0 1.12-.31 1.48-.88"/><g filter="url(#p)"><path fill="#D1854F" d="M20.656 14.07c.43 0 .914-.415.914-1.039s-.602-1.258-1.226-1.258-1.047.533-1.047 1.157.453 1.14 1.36 1.14"/></g><path fill="url(#q)" d="M20.75 13.96c.43 0 .914-.414.914-1.038s-.602-1.258-1.227-1.258c-.624 0-1.046.532-1.046 1.156s.453 1.14 1.359 1.14"/><g filter="url(#r)"><path fill="url(#s)" d="M21.768 9.17c.146-.25.662-1.56.935-2.06H9.36s.61 2.289 1.266 3.468c.656 1.18 1.947 1.697 3.108 1.697 1.13 0 1.955-.59 2.465-1.452.226-.383 1.132-1.87 1.445-2.47.281-.443 1.165-.365 1.365 0l.4.789c.28.505.57.742 1.22.742.64 0 .85-.218 1.14-.714"/></g><g filter="url(#t)"><path fill="url(#u)" d="M18.147 7.994a.125.125 0 0 0-.076-.238zM16.47 9.875l.114.051zm-1.81 2.113a.125.125 0 0 0 .056.243zm3.412-4.232c-.216.069-.512.293-.814.635a5.7 5.7 0 0 0-.902 1.433l.228.102c.26-.582.572-1.042.861-1.37.294-.332.553-.514.703-.562zm-1.716 2.068c-.138.307-.407.82-.726 1.273-.16.226-.33.434-.498.595-.172.162-.332.264-.471.296l.055.243c.204-.046.404-.184.587-.358.186-.175.366-.398.531-.633.33-.468.607-.995.75-1.314z"/></g><defs><linearGradient id="b" x1="18.031" x2="19.5" y1="6.219" y2="6.625" gradientUnits="userSpaceOnUse"><stop stop-color="#76442D"/><stop offset=".624" stop-color="#895E48"/><stop offset="1" stop-color="#82573C"/></linearGradient><linearGradient id="c" x1="6" x2="26" y1="8.375" y2="8.375" gradientUnits="userSpaceOnUse"><stop stop-color="#9E6D47"/><stop offset=".603" stop-color="#9E491E"/><stop offset=".809" stop-color="#C6844B"/><stop offset="1" stop-color="#C48950"/></linearGradient><linearGradient id="f" x1="7.75" x2="24.75" y1="30" y2="30" gradientUnits="userSpaceOnUse"><stop stop-color="#AA7055"/><stop offset=".287" stop-color="#C57357"/><stop offset=".629" stop-color="#D6855A"/><stop offset="1" stop-color="#D28D59"/></linearGradient><linearGradient id="g" x1="21" x2="21" y1="30" y2="27.813" gradientUnits="userSpaceOnUse"><stop stop-color="#C66D81"/><stop offset=".657" stop-color="#C66B68" stop-opacity="0"/></linearGradient><linearGradient id="j" x1="16" x2="16" y1="8.781" y2="9.922" gradientUnits="userSpaceOnUse"><stop offset=".096" stop-color="#99490C"/><stop offset=".848" stop-color="#9A4A0D" stop-opacity="0"/></linearGradient><linearGradient id="k" x1="4.61" x2="27.39" y1="24.45" y2="24.45" gradientUnits="userSpaceOnUse"><stop stop-color="#7C5750"/><stop offset=".157" stop-color="#804E49"/><stop offset=".451" stop-color="#925154"/><stop offset=".791" stop-color="#A06150"/><stop offset="1" stop-color="#9B6654"/></linearGradient><linearGradient id="m" x1="9.188" x2="22.75" y1="8.188" y2="8.188" gradientUnits="userSpaceOnUse"><stop stop-color="#AB8237"/><stop offset=".336" stop-color="#D89640"/><stop offset=".535" stop-color="#F1B321"/><stop offset=".742" stop-color="#CD8607"/><stop offset=".889" stop-color="#F0AF1F"/><stop offset="1" stop-color="#EEBB35"/></linearGradient><linearGradient id="n" x1="16.005" x2="16" y1="6.82" y2="7.781" gradientUnits="userSpaceOnUse"><stop stop-color="#AF8435"/><stop offset="1" stop-color="#B48A31" stop-opacity="0"/></linearGradient><linearGradient id="s" x1="9.19" x2="22.753" y1="8.109" y2="8.109" gradientUnits="userSpaceOnUse"><stop stop-color="#B68D22"/><stop offset=".829" stop-color="#FFD15D"/></linearGradient><radialGradient id="a" cx="0" cy="0" r="1" gradientTransform="rotate(132.709 9.408 5.944)scale(2.76434)" gradientUnits="userSpaceOnUse"><stop stop-color="#A87D68"/><stop offset=".756" stop-color="#77391A"/></radialGradient><radialGradient id="d" cx="0" cy="0" r="1" gradientTransform="matrix(0 .9375 -8.6009 0 22.906 7.438)" gradientUnits="userSpaceOnUse"><stop stop-color="#D29D6C"/><stop offset=".767" stop-color="#D49F6D" stop-opacity="0"/></radialGradient><radialGradient id="e" cx="0" cy="0" r="1" gradientTransform="matrix(0 .90625 -8.31422 0 7.906 8.313)" gradientUnits="userSpaceOnUse"><stop stop-color="#AE7352"/><stop offset=".565" stop-color="#B77855" stop-opacity="0"/></radialGradient><radialGradient id="h" cx="0" cy="0" r="1" gradientTransform="rotate(135.864 .986 4.839)scale(8.79564 10.0522)" gradientUnits="userSpaceOnUse"><stop stop-color="#95653D"/><stop offset="1" stop-color="#96673D" stop-opacity="0"/></radialGradient><radialGradient id="i" cx="0" cy="0" r="1" gradientTransform="matrix(0 6.75 -16.9375 0 23.625 11.563)" gradientUnits="userSpaceOnUse"><stop stop-color="#E8A86C"/><stop offset=".574" stop-color="#E8A86C" stop-opacity="0"/></radialGradient><radialGradient id="o" cx="0" cy="0" r="1" gradientTransform="matrix(0 1.0625 -12.2813 0 22.563 7.063)" gradientUnits="userSpaceOnUse"><stop stop-color="#FECE55"/><stop offset="1" stop-color="#FCCE59" stop-opacity="0"/></radialGradient><radialGradient id="q" cx="0" cy="0" r="1" gradientTransform="rotate(124.484 7.26 11.682)scale(1.98703)" gradientUnits="userSpaceOnUse"><stop offset=".072" stop-color="#FFCD5E"/><stop offset=".771" stop-color="#F1AB38"/></radialGradient><radialGradient id="u" cx="0" cy="0" r="1" gradientTransform="rotate(120.542 5.396 9.759)scale(2.82109 1.708)" gradientUnits="userSpaceOnUse"><stop stop-color="#F7C357"/><stop offset="1" stop-color="#F9C557" stop-opacity="0"/></radialGradient><filter id="l" width="15.594" height="7.031" x="8.094" y="6.406" color-interpolation-filters="sRGB" filterUnits="userSpaceOnUse"><feFlood flood-opacity="0" result="BackgroundImageFix"/><feBlend in="SourceGraphic" in2="BackgroundImageFix" result="shape"/><feGaussianBlur result="effect1_foregroundBlur_18_30505" stdDeviation=".5"/></filter><filter id="p" width="2.773" height="2.797" x="19.047" y="11.523" color-interpolation-filters="sRGB" filterUnits="userSpaceOnUse"><feFlood flood-opacity="0" result="BackgroundImageFix"/><feBlend in="SourceGraphic" in2="BackgroundImageFix" result="shape"/><feGaussianBlur result="effect1_foregroundBlur_18_30505" stdDeviation=".125"/></filter><filter id="r" width="14.344" height="6.165" x="8.859" y="6.609" color-interpolation-filters="sRGB" filterUnits="userSpaceOnUse"><feFlood flood-opacity="0" result="BackgroundImageFix"/><feBlend in="SourceGraphic" in2="BackgroundImageFix" result="shape"/><feGaussianBlur result="effect1_foregroundBlur_18_30505" stdDeviation=".25"/></filter><filter id="t" width="4.172" height="4.984" x="14.313" y="7.5" color-interpolation-filters="sRGB" filterUnits="userSpaceOnUse"><feFlood flood-opacity="0" result="BackgroundImageFix"/><feBlend in="SourceGraphic" in2="BackgroundImageFix" result="shape"/><feGaussianBlur result="effect1_foregroundBlur_18_30505" stdDeviation=".125"/></filter></defs></svg>
